X: 101
T: Green Willis
M: C|
R: reel
K: D
(3ABc| "D"dAdA d2fe| dAdA d2gf| "A"edcB ABcd| edcB A2 (3ABc|
"D"dAdA d2fe| dAdA d2gf| "A"edcA B2c2| "D"d2de d2 :|
|:fg | "D"agfg agfe| d2de d2ef| "G"gfga bagf| "A"edcB A2fg|
"D"agfg agfe| d4 "G"g3f| "A"edcA B2c2| "D"d2de d2 :|
